X:1
T:Ride of the Valkyries
C:Richard Wagner
M:9/8
L:1/8
Q:3/8=152
K:Dm
% Die Walküre Act III prelude — Valkyrie leitmotif (WWV 86b), arranged D4–D5
z6 DDD |
D3 F3 A3 | d6 DDD | F3 A3 d3 | dcB AGA FED |
D3 F3 A3 | d3 A3 F3 | DDD FAA Add | dAd FAD DDD |
D3 F3 A3 | d3 dcB Add | ABA dAF DDD | D9 |]
